assets/forgetless.svg

<?xml version="1.0" encoding="UTF-8" standalone="no"?><!DOCTYPE svg PUBLIC "-//W3C//DTD SVG 1.1//EN" "http://www.w3.org/Graphics/SVG/1.1/DTD/svg11.dtd"><svg width="100%" height="100%" viewBox="0 0 1080 1080" version="1.1" xmlns="http://www.w3.org/2000/svg" xmlns:xlink="http://www.w3.org/1999/xlink" xml:space="preserve" xmlns:serif="http://www.serif.com/" style="fill-rule:evenodd;clip-rule:evenodd;stroke-linejoin:round;stroke-miterlimit:2;"><g id="Layer-1" serif:id="Layer 1"><g><path d="M493.073,938.447c-59.688,-0.07 -67.669,2.485 -67.775,-8.227c-0.391,-39.602 1.282,-99.98 -1.441,-104.985c-5.302,-9.745 -144.223,22.744 -180.535,-6.588c-40.164,-32.444 -18.088,-115.921 -23.649,-176.614c-2.021,-22.054 -77.395,11.167 -84.687,-28.629c-3.099,-16.915 67.978,-108.462 88.277,-146.026c7.33,-13.565 -32.36,-105.168 39.454,-208.167c86.007,-123.355 256.933,-131.994 354.24,-109.889c212.33,48.235 264.581,223.687 264.877,324.69c0.485,165.469 -106.435,219.276 -121.501,229.535c-12.295,8.372 -35.162,73.864 -9.751,150.28c19.925,59.917 48.705,84.499 36.95,84.999c-23.535,1.002 -23.379,-0.283 -294.459,-0.379Zm278.77,-434.05c-51.671,-4.528 -88.485,-35.303 -123.004,1.801c-16.69,17.94 -20.258,71.782 -46.174,31.995c-5.36,-8.23 -24.719,-20.279 -49.374,-23.298c-13.408,-1.642 -18.027,3.697 -21.745,-9.358c-5.823,-20.444 30.05,-30.08 74.743,-1.509c15.017,9.6 20.446,-52.268 98.856,-44.5c33.194,3.288 65.899,36.019 106.803,-2.499c49.936,-47.024 -48.928,-111.364 -83.894,-55.55c-1.021,1.63 -10.178,16.246 -19.351,14.27c-29.819,-6.426 10.207,-80.938 81.792,-60.742c8.286,2.338 12.954,3.59 10.944,-4.719c-12.523,-51.765 -67.892,-98.267 -70.31,-82.088c-0.473,3.164 1.613,48.159 -63.605,61.119c-23.536,4.677 -39.102,-18.887 -6.958,-27.943c92.227,-25.983 21.709,-110.398 -62.95,-109.127c-30.622,0.459 2.767,42.359 -32.597,78.08c-21.911,22.133 -63.421,3.664 -42.734,-14.139c5.006,-4.309 37.125,0.116 32.932,-44.994c-3.672,-39.504 -113.784,-38.192 -108.872,21.956c1.736,21.262 42.179,27.828 21.952,45.162c-13.292,11.391 -60.062,-15.122 -48.357,-60.982c1.91,-7.484 6.929,-9.724 0.144,-12.078c-11.976,-4.155 -103.129,46.205 -69.058,84.559c6.098,6.865 73.864,27.021 52.069,91.891c-8.953,26.647 -37.12,47.885 -43.504,25.898c-4.731,-16.295 48.54,-55.156 0.206,-78.93c-23.079,-11.352 -24.114,-10.522 -38.576,-31.609c-9.334,-13.61 -35.134,29.388 -39.994,44.025c-19.559,58.902 0.657,135.456 94.67,138.19c14.695,0.427 16.743,3.501 25.93,-7.955c31.634,-39.449 65.033,-15.823 46.059,1.759c-3.395,3.145 -35.69,14.388 -32.877,51.45c1.529,20.15 27.896,42.156 46.363,42.32c98.14,0.873 104.655,-7.563 128.67,22.236c35.691,44.288 37.074,84.66 105.643,79.764c59.152,-4.224 86.077,-53.487 69.835,-52.514c-51.549,3.088 -45.84,-23.723 -72.823,-23.662c-1.094,0.002 -22.997,4.272 -26.549,-10.69c-5.304,-22.344 36.627,-23.891 54.048,-11.536c2.913,2.066 28.759,31.013 67.006,10.382c41.859,-22.579 42.76,-97.2 42.226,-97.711c-3.191,-3.051 -9.64,4.918 -20.272,11.836c-11.016,7.168 -34.244,9.174 -37.311,9.439Z"/><path d="M529.797,451.686c3.96,-19.858 3.415,-19.696 6.329,-28.761c5.284,-16.436 -8.127,-8.038 -11.648,-7.067c-2.746,0.757 -46.824,12.915 -35.512,-2.522c12.167,-16.603 50.885,-22.043 28.9,-33.35c-1.688,-0.868 -68.299,-35.86 0.637,-23.721c10.627,1.871 21.165,9.393 16.937,-6.133c-0.779,-2.86 -15.388,-56.516 4.307,-36.801c14.545,14.559 9.49,18.092 23.152,33.772c4.598,5.277 4.213,-1.002 13.572,-18.24c0.789,-1.452 22.338,-41.139 20.301,-3.815c-0.893,16.366 -4.266,15.527 -5.981,31.773c-0.716,6.781 23.859,-2.923 38.667,-4.927c11.916,-1.613 14.669,5.743 5.061,13.05c-12.998,9.884 -13.686,8.362 -26.863,17.881c-10.309,7.447 27.329,19.423 33.373,28.365c10.612,15.698 -39.988,2.993 -43.356,2.147c-14.677,-3.685 6.88,32.764 4.256,45.131c-4.304,20.291 -29.589,-24.921 -31.222,-27.842c-6.355,-11.364 -14.492,8.32 -26.581,27.787c-7.002,11.275 -14.218,6.669 -14.332,-6.727Z" style="fill:#c68b6b;"/></g></g></svg>

<?xml version="1.0" encoding="UTF-8" standalone="no"?>
<!DOCTYPE svg PUBLIC "-//W3C//DTD SVG 1.1//EN" "http://www.w3.org/Graphics/SVG/1.1/DTD/svg11.dtd">
<svg width="100%" height="100%" viewBox="0 0 1080 1080" version="1.1" xmlns="http://www.w3.org/2000/svg" xmlns:xlink="http://www.w3.org/1999/xlink" xml:space="preserve" xmlns:serif="http://www.serif.com/" style="fill-rule:evenodd;clip-rule:evenodd;stroke-linejoin:round;stroke-miterlimit:2;">
    <g id="Layer-1" serif:id="Layer 1">
        <g>
            <path d="M493.073,938.447C433.385,938.377 425.404,940.932 425.298,930.22C424.907,890.618 426.58,830.24 423.857,825.235C418.555,815.49 279.634,847.979 243.322,818.647C203.158,786.203 225.234,702.726 219.673,642.033C217.652,619.979 142.278,653.2 134.986,613.404C131.887,596.489 202.964,504.942 223.263,467.378C230.593,453.813 190.903,362.21 262.717,259.211C348.724,135.856 519.65,127.217 616.957,149.322C829.287,197.557 881.538,373.009 881.834,474.012C882.319,639.481 775.399,693.288 760.333,703.547C748.038,711.919 725.171,777.411 750.582,853.827C770.507,913.744 799.287,938.326 787.532,938.826C763.997,939.828 764.153,938.543 493.073,938.447ZM771.843,504.397C720.172,499.869 683.358,469.094 648.839,506.198C632.149,524.138 628.581,577.98 602.665,538.193C597.305,529.963 577.946,517.914 553.291,514.895C539.883,513.253 535.264,518.592 531.546,505.537C525.723,485.093 561.596,475.457 606.289,504.028C621.306,513.628 626.735,451.76 705.145,459.528C738.339,462.816 771.044,495.547 811.948,457.029C861.884,410.005 763.02,345.665 728.054,401.479C727.033,403.109 717.876,417.725 708.703,415.749C678.884,409.323 718.91,334.811 790.495,355.007C798.781,357.345 803.449,358.597 801.439,350.288C788.916,298.523 733.547,252.021 731.129,268.2C730.656,271.364 732.742,316.359 667.524,329.319C643.988,333.996 628.422,310.432 660.566,301.376C752.793,275.393 682.275,190.978 597.616,192.249C566.994,192.708 600.383,234.608 565.019,270.329C543.108,292.462 501.598,273.993 522.285,256.19C527.291,251.881 559.41,256.306 555.217,211.196C551.545,171.692 441.433,173.004 446.345,233.152C448.081,254.414 488.524,260.98 468.297,278.314C455.005,289.705 408.235,263.192 419.94,217.332C421.85,209.848 426.869,207.608 420.084,205.254C408.108,201.099 316.955,251.459 351.026,289.813C357.124,296.678 424.89,316.834 403.095,381.704C394.142,408.351 365.975,429.589 359.591,407.602C354.86,391.307 408.131,352.446 359.797,328.672C336.718,317.32 335.683,318.15 321.221,297.063C311.887,283.453 286.087,326.451 281.227,341.088C261.668,399.99 281.884,476.544 375.897,479.278C390.592,479.705 392.64,482.779 401.827,471.323C433.461,431.874 466.86,455.5 447.886,473.082C444.491,476.227 412.196,487.47 415.009,524.532C416.538,544.682 442.905,566.688 461.372,566.852C559.512,567.725 566.027,559.289 590.042,589.088C625.733,633.376 627.116,673.748 695.685,668.852C754.837,664.628 781.762,615.365 765.52,616.338C713.971,619.426 719.68,592.615 692.697,592.676C691.603,592.678 669.7,596.948 666.148,581.986C660.844,559.642 702.775,558.095 720.196,570.45C723.109,572.516 748.955,601.463 787.202,580.832C829.061,558.253 829.962,483.632 829.428,483.121C826.237,480.07 819.788,488.039 809.156,494.957C798.14,502.125 774.912,504.131 771.845,504.396L771.843,504.397Z" style="fill:white;"/>
            <path d="M529.797,451.686C533.757,431.828 533.212,431.99 536.126,422.925C541.41,406.489 527.999,414.887 524.478,415.858C521.732,416.615 477.654,428.773 488.966,413.336C501.133,396.733 539.851,391.293 517.866,379.986C516.178,379.118 449.567,344.126 518.503,356.265C529.13,358.136 539.668,365.658 535.44,350.132C534.661,347.272 520.052,293.616 539.747,313.331C554.292,327.89 549.237,331.423 562.899,347.103C567.497,352.38 567.112,346.101 576.471,328.863C577.26,327.411 598.809,287.724 596.772,325.048C595.879,341.414 592.506,340.575 590.791,356.821C590.075,363.602 614.65,353.898 629.458,351.894C641.374,350.281 644.127,357.637 634.519,364.944C621.521,374.828 620.833,373.306 607.656,382.825C597.347,390.272 634.985,402.248 641.029,411.19C651.641,426.888 601.041,414.183 597.673,413.337C582.996,409.652 604.553,446.101 601.929,458.468C597.625,478.759 572.34,433.547 570.707,430.626C564.352,419.262 556.215,438.946 544.126,458.413C537.124,469.688 529.908,465.082 529.794,451.686L529.797,451.686Z" style="fill:rgb(198,139,107);"/>
        </g>
    </g>
</svg>
